X: 305786
T: COTILLION No. 25. BATTLE OF NEW ORLEANS tune 5
T: The TRUMPET OF VICTORY
%R: march, reel
B: Elias Howe "The Musician's Companion" Part 3 1844 p.133 #2
S: http://imslp.org/wiki/The_Musician's_Companion_(Howe,_Elias)
Z: 2015 John Chambers <jc:trillian.mit.edu>
M: 2/4
L: 1/16
K: C
% - - - - - - - - - - - - - - - - - - - - - - - - - - - - -
G,2 |\
C2CC C2C2 | C2EG c2G,C | E2EE E2E2 | E2Gc e2CE |\
G2EG c2Gc | e2ce g2eg | c2g2e2g2 | c'4 z2 H|]
ag |\
d2d2d2d2 | d2ec a2g2 | d2d2d2d2 | d2ec a2g2 |\
A2A2 A2ed | G2G2 G2gf | e2ag ^f2ef | g4 "^D.C."z2 |]
g2 |\
c'2c'2 c'2ba | g^fgf g2g2 | a2a2 a2gf | e^ded e2c2 |\
fdef g2e2 | a2f2 bgab | c'2a2e2^f2 | [g6B6D6G,6] "^D.C."y|]
% - - - - - - - - - - Dance description - - - - - - - - - -
%%begintext align
%% First 2 forward and back,
%% back to back,
%% ladies cross hands round and back,
%% give the other hands to partners and balance,
%% &c.
%%endtext
% - - - - - - - - - - - - - - - - - - - - - - - - - - - - -
%%sep 1 1 300


